X: 1776
T: Seyyah Olup Şu Âlemi Gezersin
C: Nurettin Dadaloğlu
O: Turkey
F: http://compmusic.upf.edu/node/140
N: ussak--ilahi--sofyan--seyyah_olup--
N: makam= ussak
N: form= ilahi
N: usul= sofyan = 4/4
M: 4/4
L: 1/16
K: C _2/4B   
Q: 1/4=66
%%MIDI tuningsystem comma53
c2c2 ed2B c2c4dB  | BB2B dc2B B6cA  | \
w:  ARANAĞME  |   | 
AA2A cB2A A8  | 
w:   | 
c2c2 ed2B c2c4dB  | BB2B dc2B B6cA  | \
w:  ARANAĞME  |   | 
AA2A cB2A A8  | 
w:   | 
z2cd ee3 ee4-efd  | dd2d fe2d d6z2  | \
w:  Sey yah_ o lup  şu  â  |  le mi  ge *  ze *  rim    | 
z2dg ee3 ee4-efd  | 
w:  Sey yah_ o lup  şu  â  | 
dd2d fe2d d6ec  | c2c2 ed2B c2c4dB  | \
w:  le mi  ge *  ze *  rim    |  Bir  dost  bu la *  ma dım   | 
BB2B dc2B B6cA  | 
w:  gün_ ak şam_ *  ol *  du   | 
AA2A cB2A A8  | z2cd d2d2 ced2 d2e2  | \
w:  gün_ ak şam_ *  ol *  du    |  Ken di  ef kâ rım *  la  yâr  yâr   | 
cc2c ed2B c6dB  | 
w:  o kur  ya *  za *  rım    | 
B2B2 dc2B B2B4cA  | AA2A cB2A A8  | z2cd d2d2 ced2 d2e2  | 
w:  Bir  dost  bu la *  ma dım   |  gün_ ak şam_ *  ol *  du    |  Ken di  ef kâ rım *  la  yâr  yâr   | 
cc2c ed2B c6dB  | B2B2 dc2B B2B4cA  | \
w:  o kur  ya *  za *  rım    |  Bir  dost  bu la *  ma dım   | 
AA2A cB2A A8  | 
w:  gün_ ak şam_ *  ol *  du    | 
c2c2 ed2B c2c4dB  | BB2B dc2B B6cA  | \
w:  ARANAĞME  |   | 
AA2A cB2A A8  | 
w:   | 
c2c2 ed2B c2c4dB  | BB2B dc2B B6cA  | \
w:  ARANAĞME  |   | 
AA2A cB2A A8  | 
w:   | 
z2cd ee3 ee4-efd  | dd2d fe2d d6z2  | \
w:  Sey yah_ o lup  şu  â  |  le mi  ge *  ze *  rim    | 
z2dg ee3 ee4-efd  | 
w:  Sey yah_ o lup  şu  â  | 
dd2d fe2d d6ec  | c2c2 ed2B c2c4dB  | \
w:  le mi  ge *  ze *  rim    |  Bir  dost  bu la *  ma dım   | 
BB2B dc2B B6cA  | 
w:  gün_ ak şam_ *  ol *  du   | 
AA2A cB2A A8  | z2cd d2d2 ced2 d2e2  | \
w:  gün_ ak şam_ *  ol *  du    |  Ken di  ef kâ rım *  la  yâr  yâr   | 
cc2c ed2B c6dB  | 
w:  o kur  ya *  za *  rım    | 
B2B2 dc2B B2B4cA  | AA2A cB2A A8  | z2cd d2d2 ced2 d2e2  | 
w:  Bir  dost  bu la *  ma dım   |  gün_ ak şam_ *  ol *  du    |  Ken di  ef kâ rım *  la  yâr  yâr   | 
cc2c ed2B c6dB  | B2B2 dc2B B2B4cA  | \
w:  o kur  ya *  za *  rım    |  Bir  dost  bu la *  ma dım   | 
AA2A cB2A A8  | 
w:  gün_ ak şam_ *  ol *  du    | 
|


